dist/img/login-view.svg

<svg width="20" height="13" viewBox="0 0 20 13" fill="none" xmlns="http://www.w3.org/2000/svg">
<path fill-rule="evenodd" clip-rule="evenodd" d="M0.444382 7.04415C1.46003 8.70328 2.82612 10.0502 4.54351 11.0459C6.2609 12.0607 8.07656 12.5676 9.98873 12.5676C11.9018 12.5676 13.7174 12.0607 15.4348 11.065C17.1522 10.0502 18.5183 8.72241 19.5331 7.04415C19.6696 6.79024 19.7479 6.53633 19.7479 6.30241C19.7479 6.0485 19.6696 5.79546 19.5331 5.54154C18.5183 3.88241 17.1522 2.53546 15.4348 1.53981C13.7174 0.525023 11.9018 0.0180664 9.98873 0.0180664C8.07656 0.0180664 6.2609 0.525023 4.54351 1.53981C2.82612 2.53546 1.46003 3.88241 0.444382 5.54154C0.30786 5.79546 0.230469 6.0485 0.230469 6.30241C0.230469 6.53633 0.30786 6.79024 0.444382 7.04415ZM5.77308 2.43807C5.32438 3.19894 5.1096 4.01894 5.1096 4.8972C5.1096 6.24415 5.5783 7.39546 6.53395 8.35198C7.49047 9.3085 8.64264 9.7772 9.98873 9.7772C11.3357 9.7772 12.487 9.3085 13.4244 8.35198C14.3809 7.39546 14.8687 6.24415 14.8687 4.8972C14.8687 4.01894 14.6339 3.19894 14.2053 2.43807C15.8644 3.2972 17.2496 4.58502 18.3426 6.30241C17.3861 7.78589 16.1766 8.97633 14.7122 9.85459C13.2679 10.7328 11.687 11.1824 9.98873 11.1824C8.29134 11.1824 6.71047 10.7328 5.24612 9.85459C3.80177 8.97633 2.59134 7.78589 1.61569 6.30241C2.72873 4.58502 4.11395 3.2972 5.77308 2.43807ZM7.64699 2.55546C8.29134 1.91111 9.07134 1.57894 9.98873 1.57894C10.1261 1.57894 10.2426 1.63807 10.36 1.73546C10.4574 1.83285 10.4966 1.95024 10.4966 2.10589C10.4966 2.24241 10.4574 2.37981 10.36 2.4772C10.2426 2.57459 10.1261 2.63285 9.98873 2.63285C9.36438 2.63285 8.81829 2.84763 8.38873 3.2972C7.94003 3.74589 7.72525 4.27285 7.72525 4.8972C7.72525 5.05372 7.66612 5.17024 7.56873 5.2685C7.47134 5.36589 7.33482 5.42415 7.19829 5.42415C7.04177 5.42415 6.92525 5.36589 6.82699 5.2685C6.7296 5.17024 6.67134 5.05372 6.67134 4.8972C6.67134 3.97981 7.00264 3.19894 7.64699 2.55546Z" fill="#BEBEBE"/>
</svg>

<svg width="20" height="13" fill="none" xmlns="http://www.w3.org/2000/svg"><path fill-rule="evenodd" clip-rule="evenodd" d="M.444 7.044a11.517 11.517 0 004.1 4.002c1.717 1.015 3.533 1.522 5.445 1.522 1.913 0 3.728-.507 5.446-1.503 1.717-1.015 3.083-2.343 4.098-4.02.137-.255.215-.509.215-.743a1.6 1.6 0 00-.215-.76 11.507 11.507 0 00-4.098-4.002C13.717.525 11.902.018 9.989.018 8.077.018 6.26.525 4.544 1.54a11.517 11.517 0 00-4.1 4.002 1.607 1.607 0 00-.214.76c0 .234.078.488.214.742zm5.33-4.606a4.75 4.75 0 00-.664 2.46c0 1.346.468 2.497 1.424 3.454.956.957 2.109 1.425 3.455 1.425 1.347 0 2.498-.468 3.435-1.425.957-.957 1.445-2.108 1.445-3.455a4.95 4.95 0 00-.664-2.459c1.66.86 3.045 2.147 4.138 3.864-.957 1.484-2.166 2.674-3.63 3.553a8.95 8.95 0 01-4.724 1.327c-1.698 0-3.279-.45-4.743-1.327-1.444-.879-2.655-2.07-3.63-3.553 1.113-1.717 2.498-3.005 4.157-3.864zm1.873.117c.644-.644 1.424-.976 2.342-.976.137 0 .254.06.371.156a.486.486 0 01.137.37.52.52 0 01-.137.372.571.571 0 01-.371.156c-.625 0-1.17.215-1.6.664a2.166 2.166 0 00-.664 1.6.532.532 0 01-.527.527.502.502 0 01-.371-.155.502.502 0 01-.156-.372c0-.917.332-1.698.976-2.342z" fill="#BEBEBE"/></svg>
